X:1
T:Choosing the Hill Country
T:Choosing the Hill Country
T:Charles Hutchinson Gabriel
T:Harry Malcolm Chalfant, 1908
T:Public Domain Courtesy of the Cyber Hymnal™
T:Public Domain Courtesy of the Cyber Hymnal™
C:Charles Hutchinson Gabriel
Z:Public Domain
Z:Courtesy of the Cyber Hymnal™
%%score ( 1 2 ) ( 3 4 )
L:1/8
Q:1/4=100
M:4/4
K:C
V:1 treble 
V:2 treble 
V:3 bass 
V:4 bass 
V:1
 [EG][CE][DF] | [EG]2 [CG]2 [DG]2 [FG]2 | [EG]4- [EG][EG][CE][DF] | [EG]2 [EA]2 [EB]2 [Ec]2 | %4
w: 1.~For con- quered|fields I do not|ask, * From toil and|tears I would not|
w: 2.~I do not|ask that He will|give * The milk and|hon- ey of the|
w: 3.~If dis- ap-|point- ment be my|lot, * And scorn- ful|foes dis- tress my|
 [FB]4- [FB][Fd][FA][Fc] | [FB]2 [FA]2 [DF]2 [DG]2 | [FB]3 [FA] [EG]2 [DF]2 | %7
w: flee; * Nor do I|seek the ea- sy|task, The hill- y|
w: land; * I do not|ask that I may|live In gild- ed|
w: life, * I trust in|Him, He fails me|not, But grants me|
 [CE]3 [B,D] [CE]2 [DF]2 | [EG]4 z [EG][CE][DF] | [EG]2 [CG]2 [DG]2 [FG]2 | %10
w: land my choice would|be. The foe is|there, and lo, his|
w: home or pal- ace|grand. The threat- ening|storm I do not|
w: peace in midst of|strife. Thus shall my|days glide swift- ly|
 [EG]4- [EG][^D^F][EG][EA] | [EB]2 [EB]2 [^DB]2 [^FB]2 | [EB]6 [G^c]2 | [Fd]2 [Gd]2 [Ad]2 [^FA]2 | %14
w: sword * Is drawn, the|land he will not|yield; But|God is faith- ful|
w: fear, * The thor- ny|path I would not|shun, But|on- ly plead that|
w: on, * Till in this|world I cease to|roam, Till|sights and sounds of|
 [GB]2 [^Fc]2 [Gd][Ge][Gd][Gc] | [GB]3 [Ac] [GB]2 [^FA]2 | G6 x2 ||"^Refrain" [Ec]4 [Ec]3 [Fd] | %18
w: and His Word Shall be my|fort- ress and my|shield.||
w: He might hear My prayer for|strength the race to|run.|Give me the|
w: time are gone, And I have|reached my end- less|home.||
 [Ec]2 G2 E2 C2 | [Ge]3 [Gd] [Gc]2 [Gd]2 | [Ge]3 [Gd] [Ge]4 | [Ad]4 [FA]3 [FA] | %22
w: ||||
w: field of la- bor,|Let me work till|set of sun,|That when the|
w: ||||
 [Ad]2 [Ac]2 [^FB]2 [FA]2 | G2 G2 [^FA]2 !fermata![=FB]2 | [Ec]4- [Ec] |] %25
w: |||
w: Mas- ter com- eth,|He may say, “Well|done!” *|
w: |||
V:2
 x3 | x8 | x8 | x8 | x8 | x8 | x8 | x8 | x8 | x8 | x8 | x8 | x8 | x8 | x8 | x8 | (G2 G2 A2 B2) || %17
 x8 | x2 G2 E2 C2 | x8 | x8 | x8 | x8 | G2 G2 x4 | x5 |] %25
V:3
 [C,C][C,G,][C,G,] | [C,C]2 [E,C]2 [G,B,]2 [G,,D]2 | [C,C]4- [C,C][C,C][C,G,][C,G,] | %3
 [C,C]2 [C,C]2 [C,G,]2 [C,G,]2 | [D,G,]4- [D,G,][G,B,][G,B,][G,B,] | %5
 [G,D]2 [G,B,]2 [G,B,]2 [G,B,]2 | [G,D]3 [G,B,] [G,C]2 G,2 | [C,G,]3 [F,G,] [E,G,]2 [D,G,]2 | %8
 [C,C]4 z [C,C][C,G,][C,G,] | [C,C]2 [E,C]2 [G,B,]2 [G,,D]2 | [C,C]4- [C,C][C,C][C,C][C,G,] | %11
 [B,,G,]2 [B,,G,]2 [B,,^F,]2 [B,,A,]2 | [E,G,]6 [E,A,]2 | [D,A,]2 [D,B,]2 [D,C]2 [CD]2 | %14
 [B,D]2 [A,D]2 [G,B,][C,C][B,,D][C,E] | [D,D]3 [D,D] [D,D]2 [D,C]2 | (z2 G,2 A,2 B,2) || %17
 [C,G,]4 [C,G,]3 [C,G,] | [C,G,]2 G,2 E,2 C,2 | C3 [G,B,] [E,C]2 [G,B,]2 | C3 [G,B,] C4 | %21
 [F,C]4 [F,C]3 [F,C] | [^F,C]2 [F,D]2 [D,D]2 [D,C]2 | [G,B,]2 [G,B,]2 [G,C]2 !fermata!G,2 | %24
 [C,G,]4- [C,G,] |] %25
V:4
 x3 | x8 | x8 | x8 | x8 | x8 | x6 G,2 | x8 | x8 | x8 | x8 | x8 | x8 | x8 | x8 | x8 | [G,B,]6 x2 || %17
 x8 | x2 G,2 E,2 C,2 | C3 x5 | C3 C4 x | x8 | x8 | x6 G,2 | x5 |] %25

